src/images/svg-to-icon-sprite/logo.svg

<svg width="178" height="38" viewBox="0 0 178 38" fill="none" xmlns="http://www.w3.org/2000/svg">
<path d="M15.114 36.0998H10.074L5.00875 28.2122V36.0998H0.497925V18.4597H5.00875V25.8686L9.82198 18.4597H14.862L9.26758 27.0278L15.114 36.0998Z" fill="#333333"/>
<path d="M20.9065 31.8662H27.7357V36.0998H16.3957V18.4597H27.6097V22.6681H20.9065V25.1126H26.9797V29.2706H20.9065V31.8662Z" fill="#333333"/>
<path d="M47.8746 18.4597V36.0998H43.389V26.5994L39.1049 33.6806H38.6513L34.3925 26.6246V36.0998H29.8817V18.4597H34.3925L38.8781 25.9946L43.389 18.4597H47.8746Z" fill="#333333"/>
<path d="M64.2848 18.4597V36.0998H59.774V22.8193H55.1876V36.0998H50.6767V18.4597H64.2848Z" fill="#333333"/>
<path d="M76.7939 36.0998V27.2294L70.5695 36.0998H67.0667V18.4597H71.5775V27.3302L77.8019 18.4597H81.2796V36.0998H76.7939Z" fill="#333333"/>
<path d="M93.5471 18.4597H98.0327V36.0998H93.5471V29.321H88.5827V36.0998H84.0719V18.4597H88.5827V24.9866H93.5471V18.4597Z" fill="#333333"/>
<path d="M111.264 18.4597V22.8193H105.342V36.0998H100.831V18.4597H111.264Z" fill="#333333"/>
<path d="M1.77588 10.2157H6.23991V11.7997H0.119873V1.71967H6.16791V3.30368H1.77588V5.9245H5.80791V7.49411H1.77588V10.2157Z" fill="#333333"/>
<path d="M13.6887 6.5725C14.1303 6.8029 14.4759 7.1197 14.7255 7.52291C14.9751 7.92611 15.0999 8.39171 15.0999 8.91971C15.0999 9.74532 14.8071 10.4317 14.2215 10.9789C13.6359 11.5261 12.9207 11.7997 12.0759 11.7997H7.75586V1.71967H11.7591C12.5847 1.71967 13.2807 1.98847 13.8471 2.52608C14.4231 3.05408 14.7111 3.71648 14.7111 4.51329C14.7111 5.38689 14.3703 6.0733 13.6887 6.5725ZM11.7591 3.27488H9.41187V5.9245H11.7591C12.1239 5.9245 12.4311 5.7997 12.6807 5.5501C12.9303 5.29089 13.0551 4.97409 13.0551 4.59969C13.0551 4.22529 12.9303 3.91329 12.6807 3.66368C12.4311 3.40448 12.1239 3.27488 11.7591 3.27488ZM12.0759 10.2445C12.4599 10.2445 12.7815 10.1101 13.0407 9.84132C13.3095 9.56292 13.4439 9.22692 13.4439 8.83332C13.4439 8.43971 13.3095 8.10851 13.0407 7.83971C12.7815 7.56131 12.4599 7.42211 12.0759 7.42211H9.41187V10.2445H12.0759Z" fill="#333333"/>
<path d="M20.2602 1.71967C21.2106 1.71967 22.0026 2.03647 22.6362 2.67008C23.2794 3.30368 23.601 4.09089 23.601 5.03169C23.601 5.9629 23.2794 6.7501 22.6362 7.39331C22.0026 8.02691 21.2106 8.34371 20.2602 8.34371H18.201V11.7997H16.545V1.71967H20.2602ZM20.2602 6.7885C20.7498 6.7885 21.153 6.6253 21.4698 6.2989C21.7866 5.9629 21.945 5.54049 21.945 5.03169C21.945 4.52289 21.7866 4.10529 21.4698 3.77888C21.153 3.44288 20.7498 3.27488 20.2602 3.27488H18.201V6.7885H20.2602Z" fill="#333333"/>
<path d="M33.3784 10.4749C32.3704 11.4829 31.1368 11.9869 29.6776 11.9869C28.2184 11.9869 26.98 11.4829 25.9624 10.4749C24.9544 9.45732 24.4504 8.21891 24.4504 6.7597C24.4504 5.30049 24.9544 4.06689 25.9624 3.05888C26.98 2.04127 28.2184 1.53247 29.6776 1.53247C31.1368 1.53247 32.3704 2.04127 33.3784 3.05888C34.3961 4.06689 34.9049 5.30049 34.9049 6.7597C34.9049 8.21891 34.3961 9.45732 33.3784 10.4749ZM27.1288 9.35172C27.82 10.0333 28.6696 10.3741 29.6776 10.3741C30.6856 10.3741 31.5304 10.0333 32.212 9.35172C32.9032 8.66051 33.2488 7.79651 33.2488 6.7597C33.2488 5.7229 32.9032 4.86369 32.212 4.18209C31.5304 3.49088 30.6856 3.14528 29.6776 3.14528C28.6696 3.14528 27.82 3.49088 27.1288 4.18209C26.4472 4.86369 26.1064 5.7229 26.1064 6.7597C26.1064 7.79651 26.4472 8.66051 27.1288 9.35172Z" fill="#333333"/>
<path d="M136.51 11.1076C136.063 10.4433 136.539 9.5498 137.34 9.5498H157.415C157.756 9.5498 158.074 9.72372 158.258 10.0111L174.529 35.4613C174.955 36.1269 174.477 37 173.687 37H154.446C154.113 37 153.801 36.8342 153.616 36.5578L136.51 11.1076Z" fill="#333333"/>
<path d="M136.813 10.4498L120.613 36.1" stroke="#333333" stroke-width="2" stroke-linecap="round" stroke-linejoin="round"/>
<path d="M136.813 10.4498L153.913 36.1" stroke="#333333" stroke-width="2" stroke-linecap="round" stroke-linejoin="round"/>
<path d="M116.563 36.5499H176.863" stroke="#333333" stroke-linecap="round" stroke-linejoin="round"/>
<path d="M135.463 29.35C134.383 32.59 132.313 35.2 131.413 36.1H142.663C141.913 35.2 140.143 32.77 139.063 30.25C137.983 27.7299 136.963 22.2999 136.813 19.8999C136.663 21.6999 136.543 26.1099 135.463 29.35Z" fill="#333333"/>
<path d="M105.492 6.21264C106.576 4.77202 109.277 4.4557 110.795 5.0691C112.313 5.68249 113.387 6.52944 113.733 6.87624C113.736 6.14349 114.142 4.39076 115.431 3.10107C116.72 1.81138 117.922 1.39609 120.067 1.56093" stroke="#333333" stroke-width="2" stroke-linecap="round" stroke-linejoin="round"/>
<path d="M148.267 16L157.205 28.4375" stroke="white" stroke-width="0.5" stroke-linecap="round" stroke-linejoin="round"/>
<path d="M154.724 19.714L162.907 31.0341" stroke="white" stroke-width="0.5" stroke-linecap="round" stroke-linejoin="round"/>
</svg>

<svg width="178" height="38" fill="none" xmlns="http://www.w3.org/2000/svg"><path d="M15.114 36.1h-5.04l-5.065-7.888V36.1H.498V18.46h4.51v7.409l4.814-7.41h5.04l-5.594 8.569 5.846 9.072ZM20.907 31.866h6.829V36.1h-11.34V18.46H27.61v4.208h-6.703v2.445h6.073v4.158h-6.073v2.595ZM47.875 18.46V36.1h-4.486v-9.5l-4.284 7.08h-.454l-4.259-7.055V36.1h-4.51V18.46h4.51l4.486 7.535 4.511-7.535h4.486ZM64.285 18.46V36.1h-4.511V22.82h-4.586V36.1h-4.511V18.46h13.608ZM76.794 36.1v-8.87L70.57 36.1h-3.503V18.46h4.51v8.87l6.225-8.87h3.478V36.1h-4.486ZM93.547 18.46h4.486V36.1h-4.486V29.32h-4.964V36.1h-4.511V18.46h4.51v6.527h4.965V18.46ZM111.264 18.46v4.36h-5.922V36.1h-4.511V18.46h10.433ZM1.776 10.216H6.24V11.8H.12V1.72h6.048v1.584H1.776v2.62h4.032v1.57H1.776v2.722ZM13.689 6.572c.441.23.787.548 1.037.95.25.404.374.87.374 1.398 0 .825-.293 1.512-.878 2.059-.586.547-1.301.82-2.146.82h-4.32V1.72h4.003c.826 0 1.522.27 2.088.807.576.528.864 1.19.864 1.987 0 .874-.34 1.56-1.022 2.06Zm-1.93-3.297H9.412v2.65h2.347c.365 0 .672-.125.922-.375.25-.26.374-.576.374-.95a1.27 1.27 0 0 0-.374-.936 1.23 1.23 0 0 0-.922-.39Zm.317 6.97c.384 0 .705-.135.965-.404.268-.278.403-.614.403-1.008a1.35 1.35 0 0 0-.403-.993 1.265 1.265 0 0 0-.965-.418H9.412v2.823h2.664ZM20.26 1.72c.95 0 1.743.316 2.376.95.643.634.965 1.42.965 2.362 0 .93-.322 1.718-.965 2.361-.633.634-1.425.95-2.376.95h-2.059V11.8h-1.656V1.72h3.715Zm0 5.069c.49 0 .893-.164 1.21-.49.317-.336.475-.759.475-1.267 0-.51-.158-.927-.475-1.253-.317-.336-.72-.504-1.21-.504h-2.059v3.514h2.06ZM33.378 10.475c-1.008 1.008-2.241 1.512-3.7 1.512-1.46 0-2.698-.504-3.716-1.512-1.008-1.018-1.512-2.256-1.512-3.715 0-1.46.504-2.693 1.512-3.701 1.018-1.018 2.256-1.527 3.716-1.527 1.459 0 2.692.51 3.7 1.527 1.018 1.008 1.527 2.241 1.527 3.7 0 1.46-.509 2.698-1.527 3.716Zm-6.25-1.123c.692.681 1.542 1.022 2.55 1.022 1.008 0 1.852-.34 2.534-1.022.691-.691 1.037-1.555 1.037-2.592 0-1.037-.346-1.896-1.037-2.578-.682-.691-1.526-1.037-2.534-1.037-1.008 0-1.858.346-2.55 1.037-.68.682-1.022 1.54-1.022 2.578 0 1.037.341 1.9 1.023 2.592ZM136.51 11.108a1 1 0 0 1 .83-1.558h20.075c.341 0 .659.174.843.461l16.271 25.45a1 1 0 0 1-.842 1.539h-19.241a1 1 0 0 1-.83-.442l-17.106-25.45Z" fill="#333"/><path d="m136.813 10.45-16.2 25.65M136.813 10.45l17.1 25.65" stroke="#333" stroke-width="2" stroke-linecap="round" stroke-linejoin="round"/><path d="M116.563 36.55h60.3" stroke="#333" stroke-linecap="round" stroke-linejoin="round"/><path d="M135.463 29.35c-1.08 3.24-3.15 5.85-4.05 6.75h11.25c-.75-.9-2.52-3.33-3.6-5.85-1.08-2.52-2.1-7.95-2.25-10.35-.15 1.8-.27 6.21-1.35 9.45Z" fill="#333"/><path d="M105.492 6.213c1.084-1.441 3.785-1.757 5.303-1.144 1.518.613 2.592 1.46 2.938 1.807.003-.733.409-2.485 1.698-3.775s2.491-1.705 4.636-1.54" stroke="#333" stroke-width="2" stroke-linecap="round" stroke-linejoin="round"/><path d="m148.267 16 8.938 12.438M154.724 19.714l8.183 11.32" stroke="#fff" stroke-width=".5" stroke-linecap="round" stroke-linejoin="round"/></svg>
